svgs/duotone/comment-pen.svg

<svg xmlns="http://www.w3.org/2000/svg" viewBox="0 0 512 512"><!--! Font Awesome Pro 6.3.0 by @fontawesome - https://fontawesome.com License - https://fontawesome.com/license (Commercial License) Copyright 2023 Fonticons, Inc. --><defs><style>.fa-secondary{opacity:.4}</style></defs><path class="fa-primary" d="M215.1 336.9c-1.957 1.957-4.445 3.285-7.156 3.828l-55.55 11.11c-4.898 .9805-9.215-3.34-8.234-8.234l11.11-55.54c.543-2.711 1.875-5.203 3.832-7.156l97.61-97.61l56 56.01L215.1 336.9zM359.8 192.2l-24.48 24.48l-56-56.01l24.48-24.48c10.94-10.93 28.66-10.93 39.6 0l16.41 16.41C370.7 163.6 370.7 181.3 359.8 192.2z"/><path class="fa-secondary" d="M256 31.1c-141.4 0-255.1 93.09-255.1 208c0 49.59 21.38 94.1 56.97 130.7c-12.5 50.39-54.31 95.3-54.81 95.8c-2.187 2.297-2.781 5.703-1.5 8.703c1.312 3 4.125 4.797 7.312 4.797c66.31 0 116-31.8 140.6-51.41c32.72 12.31 69.01 19.41 107.4 19.41c141.4 0 255.1-93.09 255.1-207.1S397.4 31.1 256 31.1zM215.1 336.9c-1.957 1.957-4.445 3.285-7.156 3.828l-55.55 11.11c-4.898 .9805-9.215-3.34-8.234-8.234l11.11-55.54c.543-2.711 1.875-5.203 3.832-7.156l97.61-97.61l56 56.01L215.1 336.9zM359.8 192.2l-24.48 24.48l-56-56.01l24.48-24.48c10.94-10.93 28.66-10.93 39.6 0l16.41 16.41C370.7 163.6 370.7 181.3 359.8 192.2z"/></svg>

<svg xmlns="http://www.w3.org/2000/svg" viewBox="0 0 512 512"><!-- Font Awesome Pro 6.0.0-alpha2 by @fontawesome - https://fontawesome.com License - https://fontawesome.com/license (Commercial License) --><defs><style>.fa-secondary{opacity:.4}</style></defs><path d="M256 32C114.594 32 0 125.094 0 240C0 289.594 21.406 335 57 370.703C44.5 421.094 2.688 466 2.188 466.5C0 468.797 -0.594 472.203 0.688 475.203C1.999 478.203 4.812 480 8 480C74.312 480 124 448.203 148.594 428.594C181.312 440.906 217.594 448 256 448C397.406 448 512 354.906 512 240S397.406 32 256 32ZM215.078 336.922C213.121 338.879 210.633 340.207 207.922 340.75L152.375 351.859C147.477 352.84 143.16 348.52 144.141 343.625L155.246 288.082C155.789 285.371 157.121 282.879 159.078 280.926L256.688 183.313L312.691 239.32L215.078 336.922ZM359.797 192.219L335.316 216.695L279.312 160.688L303.789 136.207C314.727 125.273 332.453 125.273 343.387 136.207L359.797 152.621C370.734 163.555 370.734 181.285 359.797 192.219Z" class="fa-secondary"/><path d="M215.078 336.922C213.121 338.879 210.632 340.207 207.921 340.75L152.374 351.859C147.476 352.84 143.16 348.52 144.14 343.625L155.246 288.082C155.789 285.371 157.121 282.879 159.078 280.926L256.687 183.313L312.691 239.32L215.078 336.922ZM359.796 192.219L335.316 216.695L279.312 160.688L303.789 136.207C314.726 125.273 332.453 125.273 343.386 136.207L359.796 152.621C370.734 163.555 370.734 181.285 359.796 192.219Z" class="fa-primary"/></svg>
